X:40
T:Auld Robin Gray. JClw.40
M:4/4
L:1/8
Q:1/4=80
S:J.Clews MS,Stoke-upon-Tern,Shrops.1832
N:The last line is marked “Sy” (Symphony) and appears to
N:be a small section to be played between verses.
A:N. Shropshire
Z:Neil Brookes 2006
K:G
“^Adagio”
G|B>cd>e ed zd|e>c g/f/(3a/g/e/ ed zG|\
B>cd>e e>dc>B|AG{G}c>B B2AG|!
{G}B>cd>e ed zd|e>f{f} g>B dc zA|\
B<dg<b c'<af<g|B>c {B}TAB G2 z_B|!
{c}_B2A>B G2B>c|d2_e>c ed .A.A|\
{c}_B>A B=B cB c^c|d^c{c} g>c ed zd|!
B>G d>e ed zd|edcB dc zA|B<dg<b Hc'<af<g|B>c {B}TAG G2||!
“marked Sy. in MS”B|c/B/c/d/ e/d/e/f/ g/d’/b/g/ d/b/g/d/|\
B/g/d/B/ A/G/A/d/ G2z|]

